X:1
T:Title
%%score { 1 | ( 2 3 ) }
L:1/8
M:6/8
K:Bb
V:1 treble nm="Grand Piano"
V:2 bass 
V:3 bass 
V:1
 z3 z2[Q:1/4=95] [DF] | [Fd]2 [DB] [DF]2 [FB] | A G2- G2 G | E2 E A2 G |[M:5/8] [DF]-[DF]- [DF]3 | %5
[M:1/8] [DF] |[M:3/4] [Fd]2 [Fd][FB] [Ec][Fd] | [Ge]G- G3 G | F2 e d2 c | [DB]6 | %10
 [DF]<[Fd] [Ec] [B,DB]2 [B,EG] | [B,EG][B,DF]- [B,DF]3 z | F<F F A2 G | [DF]6 | %14
 [Fd]<[Fd] [Fd][FB] [Ec][Fd] | [Ge]G- G3 G | F2 e d2 c |[M:5/8] [DB]-[DB]- [DB]3 |] %18
V:2
 z3 z2 [B,,F,] | [B,,F,]2 [B,,B,] [B,,B,]2 [D,B,] | [E,B,E] [E,B,E]2- [E,B,E]2 [E,B,E] | %3
 [F,C]2 [F,A,C] [F,CE]2 [F,A,E] |[M:5/8] [B,,B,]-[B,,B,]- [B,,B,]3 |[M:1/8] [B,,F,] | %6
[M:3/4] [B,,F,]2 [B,,B,][D,B,] [C,A,][B,,B,] | [E,B,][E,B,E]- [E,B,E]3 [E,B,E] | %8
 [F,B,D]2 [F,CF] [F,B,F]2 [F,A,E] | [B,,B,]6 | [B,,B,]<[B,,F,] G,/A,/ B,,2 E, | E,B,,- B,,3 z | %12
 [F,A,E]<[F,A,E] [F,A,E] [F,CE]2 [F,A,E] | [B,,B,]6 | [B,,F,]<[B,,F,] [B,,F,][D,B,] [C,A,][B,,B,] | %15
 [E,B,][E,B,E]- [E,B,E]3 [E,B,E] | [F,B,D]2 [F,CF] [F,B,F]2 [F,A,E] | %17
[M:5/8] [B,,B,]-[B,,B,]- [B,,B,]3 |] %18
V:3
 x6 | x6 | x6 | x6 |[M:5/8] x5 |[M:1/8] x |[M:3/4] x6 | x6 | x6 | x6 | z2 .B,,2 z2 | x6 | x6 | x6 | %14
 x6 | x6 | x6 |[M:5/8] x5 |] %18

